plus-box.svg

<svg fill="currentColor" viewBox="0 0 24 24"><path d="M17 13h-4v4h-2v-4H7v-2h4V7h2v4h4m2-8H5c-1.11 0-2 .89-2 2v14a2 2 0 0 0 2 2h14a2 2 0 0 0 2-2V5a2 2 0 0 0-2-2"/></svg>

<svg  viewBox="0 0 24 24" fill="currentColor"><path  d="M17,13H13V17H11V13H7V11H11V7H13V11H17M19,3H5C3.89,3 3,3.89 3,5V19A2,2 0 0,0 5,21H19A2,2 0 0,0 21,19V5C21,3.89 20.1,3 19,3Z"/></svg>
